X:181 
T:Russians Are Coming (reel), The
F:file ID: cre.5/181russ_c
B:CRE5.151 (TÃÂÃÂÃÂÃÂ¡ na RÃÂÃÂÃÂÃÂºisigh ag Teacht)
S:J.M. Buckley (Kerry)
N:CRE's setting of first part makes no sense to me but not knowing 
the tune, I can't offer any help! 
L:1/8
Q:180
M:C
R:reel
K:G
ABcA d2cA|BGG2 dcA2|ABcA dcA2|d2cA BGG2|
ABcA d2cA|BGG2 d2cA|GB~B2 Gc~c2|cBAc BGG2:|
|:fgaf g2fe|dcAc d2de|fgaf g2fe|dcAc BGG2|
fgaf g2fe|dcAc d2de|f2~f2 g2~g2|1 a2ag fdcA:|\
[2 a2ag fdcA|G8||

%%%

